X: 1
T: Bison, The
M: 4/4
L: 1/8
R: reel
K: Fmaj
|:G,3  A,  B,DGF|(3_EEE GE BEGE|(3FFF cF _eFcF|1ABAG =FGDB,:|2ABAF G2 Bc||
gd (3ddd gbag|fd (3ddd  cdAF|Gd (3ddd gbag|=fgaf g3 a|
(3bag (3ag=f gdcd|d3 _e dBAB|Fd (3ddd cdBA|BGAF G4|
